app/javascript/assets/logos/mapbox.svg

<svg height="18" viewBox="0 0 70 18" width="70" xmlns="http://www.w3.org/2000/svg"><g fill="none" fill-rule="evenodd" opacity=".601028"><path d="m62.2047161 11.9853207c-.7883282.6723958-1.8152867 1.079596-2.93698 1.079596-1.6429608 0-3.0826788-.8736031-3.8669785-2.1745763-.7377298 1.3009732-2.0918968 2.1745763-3.6369243 2.1745763-.62125 0-1.2211111-.1370834-1.7665277-.3986111-.1925.1429166-.4306945.2275-.6883334.2275h-1.155c-.6406944 0-1.1618055-.5220834-1.1618055-1.1627778v-.6251416c-.7605072 1.1810062-2.0488171 1.9590305-3.5074861 1.9590305-.44625 0-.8818056-.0709723-1.2930556-.2080556v1.5448611c0 .6406945-.5211111 1.1627778-1.1618056 1.1627778h-1.1540277c-.6406945 0-1.1618056-.5220833-1.1618056-1.1627778v-2.0652765c-.2043627.3339175-.5723277.5573599-.9914722.5573599h-1.155c-.2595833 0-.4997222-.0855556-.6931945-.2304167-.5473611.2615278-1.1501388.4015278-1.7616666.4015278-1.3387369 0-2.5341778-.6558918-3.3094661-1.6773809l.0007022.3420336c0 .6426389-.5220833 1.16375-1.1627778 1.16375h-1.1627778c-.6397222 0-1.1608333-.5211111-1.1608333-1.1618055v-3.79069446c0-.27513888-.1895833-.44041666-.3723611-.44041666-.1234722 0-.2838889.18180555-.3373611.44819444l.00875 3.78097218c0 .6426389-.5211111 1.16375-1.1618056 1.16375h-1.1627778c-.6406944 0-1.1618055-.5211111-1.1618055-1.1618055v-3.79069446c0-.27513888-.1886111-.44041666-.3723611-.44041666-.1331945 0-.3363889.22263889-.3548611.56972222l.0009722 3.6613889c0 .6406944-.5211111 1.1618055-1.1608333 1.1618055h-1.155c-.6406945 0-1.1618056-.5211111-1.1618056-1.1618055v-6.20180557c0-.64069444.5211111-1.16277777 1.1618056-1.16277777h1.155c.2090277 0 .4063888.05638888.5755555.15458333.4306945-.21194445.9070833-.32666667 1.3961111-.32666667.805 0 1.5565278.27027778 2.1525.74569445.5609722-.46375 1.2745834-.73694445 2.0241667-.74569445 1.4308969 0 2.6542472.84930979 3.1579622 2.04995844.7520441-1.23212575 2.0683254-2.05044455 3.5633017-2.05044455.62125 0 1.2211111.13805556 1.7665278.39958333.1925-.14194444.4306944-.22652777.6883333-.22652777h1.155c.4862992 0 .9037052.30021714 1.0766389.72507212.1729336-.42485498.5903397-.72507212 1.0766389-.72507212h1.1540277c.2595834 0 .4997223.08555555.6931945.22944444.5473611-.26152778 1.1511111-.4025 1.7616667-.4025 1.458669 0 2.7469789.77840451 3.5074861 1.95993348v-3.29576681c0-.64069445.5211111-1.16180556 1.1618055-1.16180556h1.155c.6397222 0 1.1608334.52111111 1.1608334 1.16180556v1.54875c.4151388-.14.8526388-.21291667 1.2940277-.21291667 1.5450275 0 2.8991945.87403007 3.6369243 2.1755742.7842997-1.30154413 2.2240177-2.1755742 3.8669785-2.1755742 1.1288308 0 2.1617173.41260037 2.9519997 1.09297666.1044318-.52343148.5679642-.91962944 1.122292-.91962944h1.3358333c.4472222 0 .8516667.22652778 1.0811111.60666667l.3295834.55125.3295833-.55319444c.2236111-.37819445.6397222-.61347223 1.085-.61347223h1.3348611c.2294444 0 .4491667.06513889.6338889.18861111.5288889.35388889.6708333 1.06847223.3188889 1.59152778l-1.6245834 2.47430556 1.68 2.55500002.0252778.0515278c.0855556.1701388.1283334.3509722.1283334.5376388 0 .6309723-.5133334 1.1443056-1.1452778 1.1443056h-1.3173611c-.4452778 0-.8613889-.2352778-1.0859723-.6134722l-.3519444-.5872222-.3558333.5911111c-.2275.3772222-.6426389.6095833-1.0830556.6095833h-1.3358333c-.2226389 0-.4375-.0622222-.62125-.1808333-.268236-.1817239-.4382054-.4489805-.4985617-.735721zm1.5404131-2.95431185.2687041-.40885607-.2705233-.41158885c.0132206.13828823.0199817.27840325.0199817.42004718 0 .13494054-.0061412.26849235-.0181625.40039774zm-13.2665736-.41109218c.0048611.62805555.4618055 1.11416666 1.0179166 1.11416666.5609722 0 1.0179167-.49486111 1.0179167-1.10347222s-.4569445-1.10444444-1.0179167-1.10444444-1.0081944.48027777-1.0179166 1.09375zm7.7625138.01069444c0 .60861111.4569445 1.10347222 1.0179167 1.10347222s1.0179167-.49486111 1.0179167-1.10347222-.4569445-1.10444444-1.0179167-1.10444444-1.0179167.49583333-1.0179167 1.10444444zm-24.8789722 0c0 .60861111.4569445 1.10347222 1.0179167 1.10347222.5561111 0 1.0120833-.48611111 1.0169444-1.08597222-.0048611-.63486111-.4608333-1.12194444-1.0169444-1.12194444-.5609722 0-1.0179167.49583333-1.0179167 1.10444444zm8.8382778-.01166667c.0048611.62902778.4618056 1.11513889 1.0179167 1.11513889.5609722 0 1.0179166-.49486111 1.0179166-1.10347222s-.4569444-1.10444444-1.0179166-1.10444444c-.5609723 0-1.0081945.48027777-1.0179167 1.09277777zm-42.20066667.01166667c0-4.75902778 3.87236111-8.63041667 8.63041667-8.63041667 4.7590278 0 8.6304167 3.87138889 8.6304167 8.63041667 0 4.75805559-3.8713889 8.63041669-8.6304167 8.63041669-4.75805556 0-8.63041667-3.8723611-8.63041667-8.63041669z" fill="#fff"/><path d="m51.4964722 10.7067917c1.0947222 0 1.9901389-.9304167 1.9901389-2.0766667 0-1.14527778-.8866667-2.07569444-1.9901389-2.07569444-1.09375 0-1.9716666.91291666-1.9901389 2.04944444v.0525c.0097223 1.1375.8963889 2.0504167 1.9901389 2.0504167zm.2673611-5.53972226c1.8005556 0 3.2559723 1.55069445 3.2559723 3.46305556 0 1.9123611-1.4554167 3.4630556-3.2559723 3.4630556-.8613889 0-1.67125-.3538889-2.26625-.9731945v.6115278c0 .1030555-.0855555.1895833-.1886111.1895833h-1.155c-.1030555 0-.1895833-.0865278-.1895833-.1895833v-8.87250001c0-.10402778.0865278-.19055556.1895833-.19055556h1.155c.1030556 0 .1886111.08652778.1886111.19055556v3.28125c.595-.61930556 1.4126389-.97319445 2.26625-.97319445zm7.4951528 5.53972226c1.09375 0 1.9901389-.9304167 1.9901389-2.0766667 0-1.14527778-.8963889-2.07569444-1.9901389-2.07569444-1.0947222 0-1.9901389.93041666-1.9901389 2.07569444 0 1.14625.8866667 2.0766667 1.9901389 2.0766667zm.00875-5.53972226c1.9463889 0 3.5233333 1.55069445 3.5233333 3.46305556 0 1.9123611-1.5769444 3.4630556-3.5233333 3.4630556-1.9473611 0-3.5233333-1.5506945-3.5233333-3.4630556 0-1.91236111 1.5759722-3.46305556 3.5233333-3.46305556zm-24.8877222 5.53972226c1.09375 0 1.9804167-.9129167 1.9891667-2.0504167v-.0525c-.00875-1.13652778-.8954167-2.04944444-1.9891667-2.04944444-1.0947222 0-1.9901389.93041666-1.9901389 2.07569444 0 1.14625.8866667 2.0766667 1.9901389 2.0766667zm3.3425-5.36763892c.1030555 0 .1895833.08652778.1895833.18958333v6.20277779c0 .1030555-.0865278.1895833-.1895833.1895833h-1.155c-.1030556 0-.1886111-.0865278-.1886111-.1895833v-.6115278c-.595.6193056-1.4126389.9731945-2.26625.9731945-1.8005556 0-3.2559722-1.5506945-3.2559722-3.4630556 0-1.91236111 1.4554166-3.46305556 3.2559722-3.46305556.8613889 0 1.67125.35388889 2.26625.97319445v-.61152778c0-.10305555.0855555-.18958333.1886111-.18958333zm5.4957778 5.36763892c1.1025 0 1.9901389-.9304167 1.9901389-2.0766667 0-1.14527778-.8876389-2.07569444-1.9901389-2.07569444-1.09375 0-1.9726389.91291666-1.9901389 2.04944444v.0525c.00875 1.1375.8963889 2.0504167 1.9901389 2.0504167zm.2663889-5.53972226c1.8005555 0 3.2569444 1.55069445 3.2569444 3.46305556 0 1.9123611-1.4563889 3.4630556-3.2569444 3.4630556-.8604167 0-1.6702778-.3538889-2.2652778-.9731945v3.2822222c0 .1030556-.0865278.1895834-.1895834.1895834h-1.1540277c-.1040278 0-.1895834-.0865278-.1895834-.1895834v-8.87347219c0-.10305555.0855556-.18958333.1895834-.18958333h1.1540277c.1030556 0 .1895834.08652778.1895834.18958333v.61152778c.595-.61930556 1.4126389-.97319445 2.2652778-.97319445zm-16.0829862.00019445c1.3348612 0 2.4208334 1.02472222 2.4208334 2.30027778l.00875 4.26319443c0 .1040278-.0865278.1905556-.1895834.1905556h-1.16375c-.1030555 0-.1886111-.0865278-.1886111-.1905556v-3.78972221c0-.80111111-.6125-1.41263889-1.3445833-1.41263889-.6620833 0-1.2055556.58527778-1.3086111 1.34361111l.0077778 3.85874999c0 .1040278-.0855556.1905556-.1895834.1905556h-1.1618055c-.1040278 0-.1905556-.0865278-.1905556-.1905556v-3.78972221c0-.80111111-.6105555-1.41263889-1.3436111-1.41263889-.7068055 0-1.2833333.66305556-1.3270833 1.49041667v3.71194443c0 .1040278-.0855556.1905556-.1886111.1905556h-1.1540278c-.1040278 0-.1905556-.0865278-.1905556-.1905556v-6.20180554c0-.10305556.0865278-.18958334.1905556-.18958334h1.1540278c.1030555 0 .1886111.08652778.1886111.18958334v.55125c.4141666-.56875 1.0772222-.91291667 1.7830555-.91291667.9051389-.00875 1.7490278.49097222 2.1719445 1.29208333.3704166-.78361111 1.1540278-1.28333333 2.0154166-1.29208333zm41.6004167 6.48705551c.0175.0340278.0252778.0680556.0252778.1030556 0 .0943056-.0777778.1720833-.1720833.1720833h-1.3183334c-.1030555 0-.1983333-.0515277-.2498611-.1370833l-1.1880555-1.98138889-1.1890278 1.98138889c-.0525.0855556-.1468056.1370833-.2498611.1370833h-1.3358334c-.0340277 0-.0680555-.00875-.0943055-.0252777-.0777778-.0525-.1030556-.1643056-.0515278-.2411112l1.9979167-3.04111107-1.9813889-3.01583333c-.0165278-.02527778-.0252778-.06027778-.0252778-.09430556 0-.09527777.0777778-.17208333.1720833-.17208333h1.3358334c.1030555 0 .1973611.05152778.2498611.13708333l1.1627778 1.94736112 1.1627777-1.95513889c.0515278-.08652778.1468056-.13805556.2498611-.13805556h1.3348612c.035 0 .0690277.00875.0952777.02527778.0777778.0525.1030556.16430555.0505556.24208333l-1.9804167 3.01486111zm-56.7363611-1.1459583c1.4554167-1.45638888 1.4038889-3.87624999-.1205556-5.39291666-1.5244444-1.51569444-3.93749996-1.57597222-5.39291662-.12055555-2.62694445 2.62791667-1.78305556 7.29652781-1.78305556 7.29652781s4.67833334.8351389 7.29652778-1.7830556zm-3.63513889-9.53652777c4.22916669 0 7.65819449 3.42902778 7.65819449 7.65819445 0 4.23013892-3.4290278 7.65819442-7.65819449 7.65819442-4.23013889 0-7.65819444-3.4280555-7.65819444-7.65819442 0-4.22916667 3.42805555-7.65819445 7.65819444-7.65819445zm.87888889 4.48836111.7495833 1.54194445 1.5409723.74958333-1.5409723.74958334-.7495833 1.54194444-.74958333-1.54194444-1.54194445-.74958334 1.54194445-.74958333z" fill="#555"/></g></svg>

<?xml version="1.0" encoding="UTF-8"?>
<svg width="70px" height="18px" viewBox="0 0 70 18" version="1.1" xmlns="http://www.w3.org/2000/svg" xmlns:xlink="http://www.w3.org/1999/xlink">
    <!-- Generator: sketchtool 53.2 (72643) - https://sketchapp.com -->
    <title>B5B9C8C9-12DC-4EBE-89D0-61375357512A</title>
    <desc>Created with sketchtool.</desc>
    <g id="UI-Kit-Extended-(WIP)-👨‍💻" stroke="none" stroke-width="1" fill="none" fill-rule="evenodd" opacity="0.601027716">
        <g id="GFW---Dashboard" transform="translate(-903.000000, -739.000000)">
            <g id="Group-6" transform="translate(903.000000, 736.000000)">
                <g id="mapbox-logo" transform="translate(0.000000, 3.000000)">
                    <path d="M62.2047161,11.9853207 C61.4163879,12.6577165 60.3894294,13.0649167 59.2677361,13.0649167 C57.6247753,13.0649167 56.1850573,12.1913136 55.4007576,10.8903404 C54.6630278,12.1913136 53.3088608,13.0649167 51.7638333,13.0649167 C51.1425833,13.0649167 50.5427222,12.9278333 49.9973056,12.6663056 C49.8048056,12.8092222 49.5666111,12.8938056 49.3089722,12.8938056 L48.1539722,12.8938056 C47.5132778,12.8938056 46.9921667,12.3717222 46.9921667,11.7310278 L46.9921667,11.1058862 C46.2316595,12.2868924 44.9433496,13.0649167 43.4846806,13.0649167 C43.0384306,13.0649167 42.602875,12.9939444 42.191625,12.8568611 L42.191625,14.4017222 C42.191625,15.0424167 41.6705139,15.5645 41.0298194,15.5645 L39.8757917,15.5645 C39.2350972,15.5645 38.7139861,15.0424167 38.7139861,14.4017222 L38.7139861,12.3364457 C38.5096234,12.6703632 38.1416584,12.8938056 37.7225139,12.8938056 L36.5675139,12.8938056 C36.3079306,12.8938056 36.0677917,12.80825 35.8743194,12.6633889 C35.3269583,12.9249167 34.7241806,13.0649167 34.1126528,13.0649167 C32.7739159,13.0649167 31.578475,12.4090249 30.8031867,11.3875358 L30.8038889,11.7295694 C30.8038889,12.3722083 30.2818056,12.8933194 29.6411111,12.8933194 L28.4783333,12.8933194 C27.8386111,12.8933194 27.3175,12.3722083 27.3175,11.7315139 L27.3175,7.94081944 C27.3175,7.66568056 27.1279167,7.50040278 26.9451389,7.50040278 C26.8216667,7.50040278 26.66125,7.68220833 26.6077778,7.94859722 L26.6165278,11.7295694 C26.6165278,12.3722083 26.0954167,12.8933194 25.4547222,12.8933194 L24.2919444,12.8933194 C23.65125,12.8933194 23.1301389,12.3722083 23.1301389,11.7315139 L23.1301389,7.94081944 C23.1301389,7.66568056 22.9415278,7.50040278 22.7577778,7.50040278 C22.6245833,7.50040278 22.4213889,7.72304167 22.4029167,8.070125 L22.4038889,11.7315139 C22.4038889,12.3722083 21.8827778,12.8933194 21.2430556,12.8933194 L20.0880556,12.8933194 C19.4473611,12.8933194 18.92625,12.3722083 18.92625,11.7315139 L18.92625,5.52970833 C18.92625,4.88901389 19.4473611,4.36693056 20.0880556,4.36693056 L21.2430556,4.36693056 C21.4520833,4.36693056 21.6494444,4.42331944 21.8186111,4.52151389 C22.2493056,4.30956944 22.7256944,4.19484722 23.2147222,4.19484722 C24.0197222,4.19484722 24.77125,4.465125 25.3672222,4.94054167 C25.9281944,4.47679167 26.6418056,4.20359722 27.3913889,4.19484722 C28.8222858,4.19484722 30.0456361,5.04415701 30.5493511,6.24480566 C31.3013952,5.01267991 32.6176765,4.19436111 34.1126528,4.19436111 C34.7339028,4.19436111 35.3337639,4.33241667 35.8791806,4.59394444 C36.0716806,4.452 36.309875,4.36741667 36.5675139,4.36741667 L37.7225139,4.36741667 C38.2088131,4.36741667 38.6262191,4.66763381 38.7991528,5.09248879 C38.9720864,4.66763381 39.3894925,4.36741667 39.8757917,4.36741667 L41.0298194,4.36741667 C41.2894028,4.36741667 41.5295417,4.45297222 41.7230139,4.59686111 C42.270375,4.33533333 42.874125,4.19436111 43.4846806,4.19436111 C44.9433496,4.19436111 46.2316595,4.97276562 46.9921667,6.15429459 L46.9921667,2.85852778 C46.9921667,2.21783333 47.5132778,1.69672222 48.1539722,1.69672222 L49.3089722,1.69672222 C49.9486944,1.69672222 50.4698056,2.21783333 50.4698056,2.85852778 L50.4698056,4.40727778 C50.8849444,4.26727778 51.3224444,4.19436111 51.7638333,4.19436111 C53.3088608,4.19436111 54.6630278,5.06839118 55.4007576,6.36993531 C56.1850573,5.06839118 57.6247753,4.19436111 59.2677361,4.19436111 C60.3965669,4.19436111 61.4294534,4.60696148 62.2197358,5.28733777 C62.3241676,4.76390629 62.7877,4.36770833 63.3420278,4.36770833 L64.6778611,4.36770833 C65.1250833,4.36770833 65.5295278,4.59423611 65.7589722,4.974375 L66.0885556,5.525625 L66.4181389,4.97243056 C66.64175,4.59423611 67.0578611,4.35895833 67.5031389,4.35895833 L68.838,4.35895833 C69.0674444,4.35895833 69.2871667,4.42409722 69.4718889,4.54756944 C70.0007778,4.90145833 70.1427222,5.61604167 69.7907778,6.13909722 L68.1661944,8.61340278 L69.8461944,11.1684028 L69.8714722,11.2199306 C69.9570278,11.3900694 69.9998056,11.5709028 69.9998056,11.7575694 C69.9998056,12.3885417 69.4864722,12.901875 68.8545278,12.901875 L67.5371667,12.901875 C67.0918889,12.901875 66.6757778,12.6665972 66.4511944,12.2884028 L66.09925,11.7011806 L65.7434167,12.2922917 C65.5159167,12.6695139 65.1007778,12.901875 64.6603611,12.901875 L63.3245278,12.901875 C63.1018889,12.901875 62.8870278,12.8396528 62.7032778,12.7210417 C62.4350418,12.5393178 62.2650724,12.2720612 62.2047161,11.9853207 Z M63.7451292,9.03100885 L64.0138333,8.62215278 L63.74331,8.21056393 C63.7565306,8.34885216 63.7632917,8.48896718 63.7632917,8.63061111 C63.7632917,8.76555165 63.7571505,8.89910346 63.7451292,9.03100885 Z M50.4785556,8.61991667 C50.4834167,9.24797222 50.9403611,9.73408333 51.4964722,9.73408333 C52.0574444,9.73408333 52.5143889,9.23922222 52.5143889,8.63061111 C52.5143889,8.022 52.0574444,7.52616667 51.4964722,7.52616667 C50.9355,7.52616667 50.4882778,8.00644444 50.4785556,8.61991667 Z M58.2410694,8.63061111 C58.2410694,9.23922222 58.6980139,9.73408333 59.2589861,9.73408333 C59.8199583,9.73408333 60.2769028,9.23922222 60.2769028,8.63061111 C60.2769028,8.022 59.8199583,7.52616667 59.2589861,7.52616667 C58.6980139,7.52616667 58.2410694,8.022 58.2410694,8.63061111 Z M33.3620972,8.63061111 C33.3620972,9.23922222 33.8190417,9.73408333 34.3800139,9.73408333 C34.936125,9.73408333 35.3920972,9.24797222 35.3969583,8.64811111 C35.3920972,8.01325 34.936125,7.52616667 34.3800139,7.52616667 C33.8190417,7.52616667 33.3620972,8.022 33.3620972,8.63061111 Z M42.200375,8.61894444 C42.2052361,9.24797222 42.6621806,9.73408333 43.2182917,9.73408333 C43.7792639,9.73408333 44.2362083,9.23922222 44.2362083,8.63061111 C44.2362083,8.022 43.7792639,7.52616667 43.2182917,7.52616667 C42.6573194,7.52616667 42.2100972,8.00644444 42.200375,8.61894444 Z M-0.000291666667,8.63061111 C-0.000291666667,3.87158333 3.87206944,0.000194444444 8.630125,0.000194444444 C13.3891528,0.000194444444 17.2605417,3.87158333 17.2605417,8.63061111 C17.2605417,13.3886667 13.3891528,17.2610278 8.630125,17.2610278 C3.87206944,17.2610278 -0.000291666667,13.3886667 -0.000291666667,8.63061111 Z" id="white-offset" fill="#FFFFFF"></path>
                    <path d="M51.4964722,10.7067917 C52.5911944,10.7067917 53.4866111,9.776375 53.4866111,8.630125 C53.4866111,7.48484722 52.5999444,6.55443056 51.4964722,6.55443056 C50.4027222,6.55443056 49.5248056,7.46734722 49.5063333,8.603875 L49.5063333,8.656375 C49.5160556,9.793875 50.4027222,10.7067917 51.4964722,10.7067917 Z M51.7638333,5.16706944 C53.5643889,5.16706944 55.0198056,6.71776389 55.0198056,8.630125 C55.0198056,10.5424861 53.5643889,12.0931806 51.7638333,12.0931806 C50.9024444,12.0931806 50.0925833,11.7392917 49.4975833,11.1199861 L49.4975833,11.7315139 C49.4975833,11.8345694 49.4120278,11.9210972 49.3089722,11.9210972 L48.1539722,11.9210972 C48.0509167,11.9210972 47.9643889,11.8345694 47.9643889,11.7315139 L47.9643889,2.85901389 C47.9643889,2.75498611 48.0509167,2.66845833 48.1539722,2.66845833 L49.3089722,2.66845833 C49.4120278,2.66845833 49.4975833,2.75498611 49.4975833,2.85901389 L49.4975833,6.14026389 C50.0925833,5.52095833 50.9102222,5.16706944 51.7638333,5.16706944 Z M59.2589861,10.7067917 C60.3527361,10.7067917 61.249125,9.776375 61.249125,8.630125 C61.249125,7.48484722 60.3527361,6.55443056 59.2589861,6.55443056 C58.1642639,6.55443056 57.2688472,7.48484722 57.2688472,8.630125 C57.2688472,9.776375 58.1555139,10.7067917 59.2589861,10.7067917 Z M59.2677361,5.16706944 C61.214125,5.16706944 62.7910694,6.71776389 62.7910694,8.630125 C62.7910694,10.5424861 61.214125,12.0931806 59.2677361,12.0931806 C57.320375,12.0931806 55.7444028,10.5424861 55.7444028,8.630125 C55.7444028,6.71776389 57.320375,5.16706944 59.2677361,5.16706944 Z M34.3800139,10.7067917 C35.4737639,10.7067917 36.3604306,9.793875 36.3691806,8.656375 L36.3691806,8.603875 C36.3604306,7.46734722 35.4737639,6.55443056 34.3800139,6.55443056 C33.2852917,6.55443056 32.389875,7.48484722 32.389875,8.630125 C32.389875,9.776375 33.2765417,10.7067917 34.3800139,10.7067917 Z M37.7225139,5.33915278 C37.8255694,5.33915278 37.9120972,5.42568056 37.9120972,5.52873611 L37.9120972,11.7315139 C37.9120972,11.8345694 37.8255694,11.9210972 37.7225139,11.9210972 L36.5675139,11.9210972 C36.4644583,11.9210972 36.3789028,11.8345694 36.3789028,11.7315139 L36.3789028,11.1199861 C35.7839028,11.7392917 34.9662639,12.0931806 34.1126528,12.0931806 C32.3120972,12.0931806 30.8566806,10.5424861 30.8566806,8.630125 C30.8566806,6.71776389 32.3120972,5.16706944 34.1126528,5.16706944 C34.9740417,5.16706944 35.7839028,5.52095833 36.3789028,6.14026389 L36.3789028,5.52873611 C36.3789028,5.42568056 36.4644583,5.33915278 36.5675139,5.33915278 L37.7225139,5.33915278 Z M43.2182917,10.7067917 C44.3207917,10.7067917 45.2084306,9.776375 45.2084306,8.630125 C45.2084306,7.48484722 44.3207917,6.55443056 43.2182917,6.55443056 C42.1245417,6.55443056 41.2456528,7.46734722 41.2281528,8.603875 L41.2281528,8.656375 C41.2369028,9.793875 42.1245417,10.7067917 43.2182917,10.7067917 Z M43.4846806,5.16706944 C45.2852361,5.16706944 46.741625,6.71776389 46.741625,8.630125 C46.741625,10.5424861 45.2852361,12.0931806 43.4846806,12.0931806 C42.6242639,12.0931806 41.8144028,11.7392917 41.2194028,11.1199861 L41.2194028,14.4022083 C41.2194028,14.5052639 41.132875,14.5917917 41.0298194,14.5917917 L39.8757917,14.5917917 C39.7717639,14.5917917 39.6862083,14.5052639 39.6862083,14.4022083 L39.6862083,5.52873611 C39.6862083,5.42568056 39.7717639,5.33915278 39.8757917,5.33915278 L41.0298194,5.33915278 C41.132875,5.33915278 41.2194028,5.42568056 41.2194028,5.52873611 L41.2194028,6.14026389 C41.8144028,5.52095833 42.6320417,5.16706944 43.4846806,5.16706944 Z M27.4016944,5.16726389 C28.7365556,5.16726389 29.8225278,6.19198611 29.8225278,7.46754167 L29.8312778,11.7307361 C29.8312778,11.8347639 29.74475,11.9212917 29.6416944,11.9212917 L28.4779444,11.9212917 C28.3748889,11.9212917 28.2893333,11.8347639 28.2893333,11.7307361 L28.2893333,7.94101389 C28.2893333,7.13990278 27.6768333,6.528375 26.94475,6.528375 C26.2826667,6.528375 25.7391944,7.11365278 25.6361389,7.87198611 L25.6439167,11.7307361 C25.6439167,11.8347639 25.5583611,11.9212917 25.4543333,11.9212917 L24.2925278,11.9212917 C24.1885,11.9212917 24.1019722,11.8347639 24.1019722,11.7307361 L24.1019722,7.94101389 C24.1019722,7.13990278 23.4914167,6.528375 22.7583611,6.528375 C22.0515556,6.528375 21.4750278,7.19143056 21.4312778,8.01879167 L21.4312778,11.7307361 C21.4312778,11.8347639 21.3457222,11.9212917 21.2426667,11.9212917 L20.0886389,11.9212917 C19.9846111,11.9212917 19.8980833,11.8347639 19.8980833,11.7307361 L19.8980833,5.52893056 C19.8980833,5.425875 19.9846111,5.33934722 20.0886389,5.33934722 L21.2426667,5.33934722 C21.3457222,5.33934722 21.4312778,5.425875 21.4312778,5.52893056 L21.4312778,6.08018056 C21.8454444,5.51143056 22.5085,5.16726389 23.2143333,5.16726389 C24.1194722,5.15851389 24.9633611,5.65823611 25.3862778,6.45934722 C25.7566944,5.67573611 26.5403056,5.17601389 27.4016944,5.16726389 Z M69.0021111,11.6543194 C69.0196111,11.6883472 69.0273889,11.722375 69.0273889,11.757375 C69.0273889,11.8516806 68.9496111,11.9294583 68.8553056,11.9294583 L67.5369722,11.9294583 C67.4339167,11.9294583 67.3386389,11.8779306 67.2871111,11.792375 L66.0990556,9.81098611 L64.9100278,11.792375 C64.8575278,11.8779306 64.7632222,11.9294583 64.6601667,11.9294583 L63.3243333,11.9294583 C63.2903056,11.9294583 63.2562778,11.9207083 63.2300278,11.9041806 C63.15225,11.8516806 63.1269722,11.739875 63.1785,11.6630694 L65.1764167,8.62195833 L63.1950278,5.606125 C63.1785,5.58084722 63.16975,5.54584722 63.16975,5.51181944 C63.16975,5.41654167 63.2475278,5.33973611 63.3418333,5.33973611 L64.6776667,5.33973611 C64.7807222,5.33973611 64.8750278,5.39126389 64.9275278,5.47681944 L66.0903056,7.42418056 L67.2530833,5.46904167 C67.3046111,5.38251389 67.3998889,5.33098611 67.5029444,5.33098611 L68.8378056,5.33098611 C68.8728056,5.33098611 68.9068333,5.33973611 68.9330833,5.35626389 C69.0108611,5.40876389 69.0361389,5.52056944 68.9836389,5.59834722 L67.0032222,8.61320833 L69.0021111,11.6543194 Z M12.26575,10.5083611 C13.7211667,9.05197222 13.6696389,6.63211111 12.1451944,5.11544444 C10.62075,3.59975 8.20769444,3.53947222 6.75227778,4.99488889 C4.12533333,7.62280556 4.96922222,12.2914167 4.96922222,12.2914167 C4.96922222,12.2914167 9.64755556,13.1265556 12.26575,10.5083611 Z M8.63061111,0.971833333 C12.8597778,0.971833333 16.2888056,4.40086111 16.2888056,8.63002778 C16.2888056,12.8601667 12.8597778,16.2882222 8.63061111,16.2882222 C4.40047222,16.2882222 0.972416667,12.8601667 0.972416667,8.63002778 C0.972416667,4.40086111 4.40047222,0.971833333 8.63061111,0.971833333 Z M9.5095,5.46019444 L10.2590833,7.00213889 L11.8000556,7.75172222 L10.2590833,8.50130556 L9.5095,10.04325 L8.75991667,8.50130556 L7.21797222,7.75172222 L8.75991667,7.00213889 L9.5095,5.46019444 Z" fill="#555555"></path>
                </g>
            </g>
        </g>
    </g>
</svg>
